Facebook.svg

<svg xmlns:rdf="http://www.w3.org/1999/02/22-rdf-syntax-ns#" xmlns="http://www.w3.org/2000/svg" xml:space="preserve" height="100%" width="100%" version="1.1" y="0px" x="0px" xmlns:cc="http://creativecommons.org/ns#" xmlns:dc="http://purl.org/dc/elements/1.1/" viewBox="0 0 266.893 266.895"><path d="m248.08 262.31c7.854 0 14.223-6.369 14.223-14.225v-229.27c0-7.857-6.368-14.224-14.223-14.224h-229.27c-7.857 0-14.224 6.367-14.224 14.224v229.27c0 7.855 6.366 14.225 14.224 14.225h229.27z" fill="#3C5A99"/><path d="m182.41 262.31v-99.803h33.499l5.016-38.895h-38.515v-24.843c0-11.261 3.127-18.935 19.275-18.935l20.596-0.009v-34.788c-3.562-0.474-15.788-1.533-30.012-1.533-29.695 0-50.025 18.126-50.025 51.413v28.684h-33.585v38.895h33.585v99.803h40.149z" fill="#FFF"/></svg>

<svg xmlns="http://www.w3.org/2000/svg" viewBox="0 0 266.893 266.895"><path d="M248.08 262.31c7.854 0 14.223-6.37 14.223-14.225V18.815c0-7.857-6.368-14.224-14.223-14.224H18.81c-7.857 0-14.224 6.368-14.224 14.225v229.27c0 7.855 6.366 14.225 14.224 14.225h229.27z" fill="#3C5A99"/><path d="M182.41 262.31v-99.803h33.5l5.015-38.895H182.41V98.77c0-11.262 3.127-18.936 19.275-18.936l20.596-.01V45.038c-3.56-.474-15.787-1.533-30.01-1.533-29.696 0-50.026 18.126-50.026 51.413V123.6H108.66v38.896h33.584V262.3h40.15z" fill="#FFF"/></svg>
